X:1
T:Nearer The Cross
T:Nearer The Cross
T:Phoebe Palmer Knapp
T:Frances Jane (Fanny) Crosby, 1875
T:Public Domain Courtesy of the Cyber Hymnal™
C:Phoebe Palmer Knapp
Z:Public Domain
Z:Courtesy of the Cyber Hymnal™
%%score ( 1 2 ) ( 3 4 )
L:1/8
Q:1/4=100
M:6/8
K:D
V:1 treble 
V:2 treble 
V:3 bass 
V:4 bass 
V:1
 [DF]>[CE]D [CE]2 [DF] | [FA]2 [GA] [FA]3 | [Fd]2 [FA] [FA]2 [DF] | [DF]3 [CE]3 | %4
w: 1.~“Near- er the cross!” my|heart can say|I am com- ing|near- er,|
w: 2.~Near- er the Christ- ian’s|mer- cy seat,|I am com- ing|near- er;|
w: 3.~Near- er in prayer my|hope as- pires,|I am com- ing|near- er;|
 [DF]>[CE]D [CE]2 [DF] | [FA]2 [GA] [FA]3 | [Fd]2 [FA] [FA]2 [DF] | [CE]3 D3 | %8
w: Near- er the cross from|day to day,|I am com- ing|near- er;|
w: Feast- ing my soul on|man- na sweet|I am com- ing|near- er;|
w: Deep- er the love my|soul de- sires,|I am com- ing|near- er;|
 [GA]>[GA][GB] [Gc]2 [GB] | [GA]2 [Fd] [Fd]3 | [GA]>[GA][GB] [Gc]2 [GB] | [FA]2 [Fd] [Fd]3 | %12
w: Near- er the cross where|Je- sus died,|Near- er the fount- ain’s|crim- son tide,|
w: Strong- er in faith, more|clear I see|Je- sus Who gave Him-|self for me;|
w: Near- er the end of|toil and care,|Near- er the joy I|long to share,|
 [Fd]>[Ac][GB] [Gd]2 [GB] | [FA]2 [DF] D3 | [DB]2 [DA] [DA]2 [CG] | [CG]3 [DF]3 | %16
w: Near- er my Sav- ior’s|wound- ed side,|I am com- ing|near- er,|
w: Near- er to Him I|still would be,|Still I’m com- ing|near- er|
w: Near- er the crown I|soon shall wear;|I am com- ing|near- er;|
 [Fd]2 [FA] [DA]2 [DF] | [CE]3 D2 |] %18
w: I am com- ing|near- er.|
w: Still I’m com- ing|near- er.|
w: I am com- ing|near- er.|
V:2
 x2 D x3 | x6 | x6 | x6 | x2 D x3 | x6 | x6 | x3 D3 | x6 | x6 | x6 | x6 | x6 | x3 D3 | x6 | x6 | %16
 x6 | x3 D2 |] %18
V:3
 [D,A,]>[D,G,][D,F,] [A,,A,]2 [D,A,] | [D,A,]2 [A,,C] [D,D]3 | [D,A,]2 [D,A,] [D,D]2 [D,A,] | %3
 [A,,A,]3 [A,,A,]3 | [D,A,]>[D,G,][D,F,] [A,,A,]2 [D,A,] | [D,A,]2 [A,,C] [D,D]3 | %6
 [D,A,]2 [D,A,] [D,D]2 [D,A,] | [A,,G,]3 [D,F,]3 | [A,,C]>[A,,C][A,,D] [A,E]2 [A,D] | %9
 [A,C]2 [D,A,] [D,A,]3 | [A,C]>[A,C][A,C] [A,E]2 [A,C] | [D,D]2 [D,A,] [D,A,]3 | %12
 [D,D]>[D,D][D,D] [D,B,]2 [D,D] | [D,D]2 [D,A,] [D,F,]3 | G,2 [F,A,] [F,A,]2 [E,A,] | %15
 [A,,A,]3 [D,A,]3 | [D,A,]2 [D,D] [F,D]2 [D,A,] | [A,,G,]3 [D,F,]2 |] %18
V:4
 x6 | x6 | x6 | x6 | x6 | x6 | x6 | x6 | x6 | x6 | x6 | x6 | x6 | x6 | G,2 x4 | x6 | x6 | x5 |] %18

